lib/images/customer02.svg

<svg width="62" height="62" viewBox="0 0 62 62" fill="none" xmlns="http://www.w3.org/2000/svg">
<path d="M61 61C61 61 58.5 50.9 48.6 50L44.5 49.4001L35 61H61ZM12.6 50C2.6 50.8 1 61 1 61H27L17.2 49.3C15.7 49.6 14.1 49.9 12.6 50Z" fill="#F27E7C"/>
<path d="M25 2.80005C25.1 5.80005 25.3 19 17 19V25C17 31.7001 19.9 37.6001 24.2 40.7001L24 41V43C24 44.7001 24 47.8 17.2 49.3L27 61H35L44.5 49.4001C38 47.8001 38 44.7001 38 43V41L37.7 40.8C42 37.7001 45 31.8 45 25V17C27.4 17 25.3 5.60005 25 2.80005Z" fill="#FFEDED"/>
<path d="M31 1C28.9 1 26.9 1.4 25 2.2V2.8C25.3 5.6 27.4 17 45 17V15.4C45 5 37.6 1 31 1Z" fill="#E59A55"/>
<path d="M25 2.79995V2.19995C20.6 3.99995 17 8.19995 17 15.4V19C25.3 19 25.2 5.79995 25 2.79995ZM24 43V41L24.2 40.7C19.9 37.6 17 31.7999 17 25.1C16.9 26.3 15.8 41.2 12 45C16 49 16.9 49.4 16.9 49.4H17.3V49.2C24 47.7999 24 44.7 24 43ZM37.7 40.7999L38 41V43C38 44.5999 38 47.6 43.9 49.2C44.2 49.2 46.2 48.7 50 45C46.2 41.2 45.1 26.3 45 25.1C45 31.9 42 37.7 37.7 40.7999Z" fill="#E59A55"/>
<path opacity="0.15" d="M29 41C24 39 24 32 24 17C23.9 14 24.2 11 24.8 7.99995L28.4 1.19995C27.2 1.39995 26.1 1.69995 25 2.19995C20.6 3.99995 17 8.19995 17 15.4V25C17 25 16 41 12 45C15.8 48.7999 16.8 49.4 16.9 49.4L12.6 50C2.6 50.7999 1 61 1 61H8.1C8.7 54.7999 14.4 53 22 52C29.6 51 34 42 34 42C32.3 41.9 30.6 41.5999 29 41Z" fill="#000064"/>
<path d="M31 1C24.4 1 17 5 17 15.4V25C17 32.2 20.3 38.4 25 41.3" stroke="#2E4369" stroke-width="2" stroke-linecap="round" stroke-linejoin="round"/>
<path d="M37 41.3C41.7 38.4 45 32.2 45 25V15.4C45 5 37.6 1 31 1" stroke="#2E4369" stroke-width="2" stroke-linecap="round" stroke-linejoin="round"/>
<path d="M45 17C25 17 25 2.19995 25 2.19995C25 2.19995 26.4 19 17 19" stroke="#2E4369" stroke-width="2" stroke-linecap="round" stroke-linejoin="round"/>
<path d="M44.5 49.4C38 47.8 38 44.7 38 43V41" stroke="#2E4369" stroke-width="2" stroke-linecap="round" stroke-linejoin="round"/>
<path d="M27 61H35" stroke="#2E4369" stroke-width="2" stroke-linecap="round" stroke-linejoin="round"/>
<path d="M24 41V43C24 44.7 24 47.8 17.2 49.3" stroke="#2E4369" stroke-width="2" stroke-linecap="round" stroke-linejoin="round"/>
<path d="M17 25C17 25 16 41 12 45C16 49 16.9 49.4 16.9 49.4" stroke="#2E4369" stroke-width="2" stroke-linecap="round" stroke-linejoin="round"/>
<path d="M45 25C45 25 46 41 50 45C46 49 43.9 49.2 43.9 49.2" stroke="#2E4369" stroke-width="2" stroke-linecap="round" stroke-linejoin="round"/>
<path d="M61 60.9999C61 60.9999 58.5 50.8999 48.6 49.9999L44.5 49.3999L35 60.9999H61Z" stroke="#2E4369" stroke-width="2" stroke-linecap="round" stroke-linejoin="round"/>
<path d="M12.6 50C2.6 50.8 1 61 1 61H27L17.2 49.3C15.7 49.6 14.1 49.9 12.6 50Z" stroke="#2E4369" stroke-width="2" stroke-linecap="round" stroke-linejoin="round"/>
</svg>

<svg width="62" height="62" fill="none" xmlns="http://www.w3.org/2000/svg"><path d="M61 61s-2.5-10.1-12.4-11l-4.1-.6L35 61h26zM12.6 50C2.6 50.8 1 61 1 61h26l-9.8-11.7c-1.5.3-3.1.6-4.6.7z" fill="#F27E7C"/><path d="M25 2.8c.1 3 .3 16.2-8 16.2v6c0 6.7 2.9 12.6 7.2 15.7l-.2.3v2c0 1.7 0 4.8-6.8 6.3L27 61h8l9.5-11.6C38 47.8 38 44.7 38 43v-2l-.3-.2C42 37.7 45 31.8 45 25v-8C27.4 17 25.3 5.6 25 2.8z" fill="#FFEDED"/><path d="M31 1c-2.1 0-4.1.4-6 1.2v.6C25.3 5.6 27.4 17 45 17v-1.6C45 5 37.6 1 31 1z" fill="#E59A55"/><path d="M25 2.8v-.6c-4.4 1.8-8 6-8 13.2V19c8.3 0 8.2-13.2 8-16.2zM24 43v-2l.2-.3c-4.3-3.1-7.2-8.9-7.2-15.6-.1 1.2-1.2 16.1-5 19.9 4 4 4.9 4.4 4.9 4.4h.4v-.2C24 47.8 24 44.7 24 43zm13.7-2.2l.3.2v2c0 1.6 0 4.6 5.9 6.2.3 0 2.3-.5 6.1-4.2-3.8-3.8-4.9-18.7-5-19.9 0 6.8-3 12.6-7.3 15.7z" fill="#E59A55"/><path opacity=".15" d="M29 41c-5-2-5-9-5-24-.1-3 .2-6 .8-9l3.6-6.8c-1.2.2-2.3.5-3.4 1-4.4 1.8-8 6-8 13.2V25s-1 16-5 20c3.8 3.8 4.8 4.4 4.9 4.4l-4.3.6C2.6 50.8 1 61 1 61h7.1c.6-6.2 6.3-8 13.9-9 7.6-1 12-10 12-10-1.7-.1-3.4-.4-5-1z" fill="#000064"/><path d="M31 1c-6.6 0-14 4-14 14.4V25c0 7.2 3.3 13.4 8 16.3m12 0c4.7-2.9 8-9.1 8-16.3v-9.6C45 5 37.6 1 31 1" stroke="#2E4369" stroke-width="2" stroke-linecap="round" stroke-linejoin="round"/><path d="M45 17C25 17 25 2.2 25 2.2S26.4 19 17 19m27.5 30.4C38 47.8 38 44.7 38 43v-2M27 61h8M24 41v2c0 1.7 0 4.8-6.8 6.3M17 25s-1 16-5 20c4 4 4.9 4.4 4.9 4.4" stroke="#2E4369" stroke-width="2" stroke-linecap="round" stroke-linejoin="round"/><path d="M45 25s1 16 5 20c-4 4-6.1 4.2-6.1 4.2M61 61s-2.5-10.1-12.4-11l-4.1-.6L35 61h26zM12.6 50C2.6 50.8 1 61 1 61h26l-9.8-11.7c-1.5.3-3.1.6-4.6.7z" stroke="#2E4369" stroke-width="2" stroke-linecap="round" stroke-linejoin="round"/></svg>
